svg/food/spatula_line.svg

<svg xmlns="http://www.w3.org/2000/svg" width="24" height="24" viewBox="0 0 24 24"><g fill="none" fill-rule="evenodd"><path d="M24,0 L24,24 L0,24 L0,0 L24,0 Z M12.5935,23.2578 L12.5819,23.2595 L12.5109,23.295 L12.4919,23.2987 L12.4767,23.295 L12.4057,23.2595 C12.3958,23.2564 12.387,23.259 12.3821,23.2649 L12.378,23.2758 L12.3609,23.7031 L12.3659,23.7235 L12.3769,23.7357 L12.4805,23.8097 L12.4953,23.8136 L12.5071,23.8097 L12.6107,23.7357 L12.6233,23.7197 L12.6267,23.7031 L12.6096,23.2758 C12.6076,23.2657 12.601,23.2593 12.5935,23.2578 Z M12.8584,23.1453 L12.8445,23.1473 L12.6598,23.2397 L12.6499,23.2499 L12.6472,23.2611 L12.6651,23.6906 L12.6699,23.7034 L12.6784,23.7105 L12.8793,23.8032 C12.8914,23.8069 12.9022,23.803 12.9078,23.7952 L12.9118,23.7812 L12.8777,23.1665 C12.8753,23.1546 12.8674,23.147 12.8584,23.1453 Z M12.143,23.1473 C12.1332,23.1424 12.1222,23.1453 12.1156,23.1526 L12.1099,23.1665 L12.0758,23.7812 C12.0751,23.7927 12.0828,23.8019 12.0926,23.8046 L12.1083,23.8032 L12.3092,23.7105 L12.3186,23.7024 L12.3225,23.6906 L12.3404,23.2611 L12.3372,23.2485 L12.3278,23.2397 L12.143,23.1473 Z"/><path fill="#09244B" d="M17.2426,3.22198 C18.219,2.24567 19.8019,2.24567 20.7782,3.22198 C21.7545,4.19829 21.7545,5.7812 20.7782,6.75751 L18.6569,8.87883 C17.932,9.60373 16.8727,9.7904 15.9755,9.43885 L14.2868,11.1276 L14.8415,11.9596 C16.1636,13.9427 15.9021,16.5833 14.2168,18.2687 L10.8787,21.6068 C10.0976,22.3878 8.83131,22.3878 8.05026,21.6068 L2.3934,15.9499 C1.61236,15.1689 1.61235,13.9025 2.3934,13.1215 L5.7315,9.78337 C7.41682,8.09805 10.0574,7.83658 12.0405,9.15866 L12.8726,9.71337 L14.5613,8.02464 C14.2098,7.12751 14.3964,6.0682 15.1213,5.3433 L17.2426,3.22198 Z M19.364,4.63619 C19.1687,4.44093 18.8521,4.44093 18.6569,4.63619 L16.5355,6.75751 C16.3403,6.95278 16.3403,7.26936 16.5355,7.46462 C16.7308,7.65988 17.0474,7.65988 17.2426,7.46462 L19.364,5.3433 C19.5592,5.14804 19.5592,4.83145 19.364,4.63619 Z M10.9311,10.8228 C9.74127,10.0295 8.15691,10.1864 7.14572,11.1976 L3.80762,14.5357 L9.46447,20.1925 L12.8026,16.8544 C13.8138,15.8432 13.9706,14.2589 13.1774,13.069 L12.3898,11.8877 C12.3166,11.7778 12.2223,11.6836 12.1125,11.6103 L10.9311,10.8228 Z M9.81803,12.0609 C10.2086,12.4514 10.2086,13.0845 9.81803,13.4751 L7.69671,15.5964 C7.30619,15.9869 6.67302,15.9869 6.2825,15.5964 C5.89197,15.2059 5.89197,14.5727 6.2825,14.1822 L8.40382,12.0609 C8.79434,11.6703 9.42751,11.6703 9.81803,12.0609 Z M11.9393,14.1821 C12.3299,14.5726 12.3299,15.2058 11.9393,15.5963 L9.81803,17.7176 C9.4275,18.1081 8.79434,18.1081 8.40381,17.7176 C8.01329,17.3271 8.01329,16.6939 8.40381,16.3034 L10.5251,14.1821 C10.9157,13.7915 11.5488,13.7915 11.9393,14.1821 Z"/></g></svg>

<svg xmlns="http://www.w3.org/2000/svg" width="24" height="24"><g fill="none" fill-rule="evenodd"><path d="M24 0v24H0V0zM12.594 23.258l-.012.002-.071.035-.02.004-.014-.004-.071-.036c-.01-.003-.019 0-.024.006l-.004.01-.017.428.005.02.01.013.104.074.015.004.012-.004.104-.074.012-.016.004-.017-.017-.427c-.002-.01-.009-.017-.016-.018m.264-.113-.014.002-.184.093-.01.01-.003.011.018.43.005.012.008.008.201.092c.012.004.023 0 .029-.008l.004-.014-.034-.614c-.003-.012-.01-.02-.02-.022m-.715.002a.023.023 0 0 0-.027.006l-.006.014-.034.614c0 .012.007.02.017.024l.015-.002.201-.093.01-.008.003-.011.018-.43-.003-.012-.01-.01z"/><path fill="#09244B" d="M17.243 3.222a2.5 2.5 0 0 1 3.535 3.536l-2.121 2.12a2.5 2.5 0 0 1-2.681.56l-1.69 1.69.556.832a5 5 0 0 1-.625 6.309l-3.338 3.338a2 2 0 0 1-2.829 0L2.393 15.95a2 2 0 0 1 0-2.828l3.339-3.339a5 5 0 0 1 6.309-.624l.832.554 1.688-1.688a2.5 2.5 0 0 1 .56-2.682zm2.121 1.414a.5.5 0 0 0-.707 0l-2.122 2.122a.5.5 0 0 0 .708.707l2.121-2.122a.5.5 0 0 0 0-.707m-8.433 6.187a3 3 0 0 0-3.785.375l-3.338 3.338 5.656 5.656 3.339-3.338a3 3 0 0 0 .374-3.785l-.787-1.181a1 1 0 0 0-.277-.278zM9.818 12.06a1 1 0 0 1 0 1.414l-2.121 2.121a1 1 0 0 1-1.415-1.414l2.122-2.121a1 1 0 0 1 1.414 0m2.121 2.121a1 1 0 0 1 0 1.414l-2.121 2.122a1 1 0 0 1-1.414-1.415l2.121-2.12a1 1 0 0 1 1.414 0"/></g></svg>
